!!!SOCIAL_FUNCTION:	songs of the grass dance
!!!PDT:	1918

Specific Region: Dakotas, Minnesota, Montana, Nebraska
!!!REG: Dakotas and Montana
!!!LING_GROUP: Siouan
!!!LANG: Tone
!!!OTL@ENG: Song of the Grass Dance (c)
!!!ONM: No. 198
**kern
*Imale
*clefG2
*k[f#]
*M2/4
*MM144
4b
12cc
12b
12b
=2
8g
8e
4e
=3
4b
12cc
12b
12b
=4
8g
8e
8.e
16g
=5
4d
8.d
16d
=6
[4B
8.B]
16B
=7
[4B
8.B]
16B
=8
4B
8.B
16d
=9
4d
16e
8.d
=10||
*M3/4
4B
8.B
16A
8B
8B
=11
2.B
=12
2.B
==
*-
!!!CNT: Native American -- Sioux
!!!MRD: 1911/07//-1914///
!!!OCL: Frances Densmore
!!!YOR1: Teton Sioux Music, Bulletin 61,
!!!YOR2: Bureau of American Ethnology, Smithsonian Institution
!!!PPR: Government Printing Office
!!!PPP: Washington, D.C.
!!!PDT: 1918///
!!!ENC: Craig Stuart Sapp
!!!END: 2002/03/25/
!!!EEV: 2002/03/31/
!!!AGN: Dance Song/Song of the Grass Dance
!!!MPN@@SIO: Hanghe'-pikte
!!!MPN@ENG: Kills-at-Night
!!!TXO: Teton Sioux
!!!MLC: Standing Rock Reservation, South Dakota, United States of America
!!!ARL: 45.9/-100.7#
!!!catalog: Catalogue No. 595
!!!PPG: 476
!!!EFL: 203/245
!!!VTS: 2101693733
